images/connection.svg

<svg width="80" height="80" viewBox="0 0 80 80" fill="none" xmlns="http://www.w3.org/2000/svg">
<circle cx="40" cy="40" r="40" fill="#2196F3" fill-opacity="0.1"/>
<path d="M40 25C31.7287 25 25 31.7287 25 40C25 48.2713 31.7287 55 40 55C48.2713 55 55 48.2713 55 40C55 31.7287 48.2713 25 40 25Z" fill="#2196F3"/>
<path d="M46.5625 41.2498H41.2499V46.5624C41.2499 47.2525 40.6901 47.8123 40 47.8123C39.3099 47.8123 38.7501 47.2525 38.7501 46.5624V41.2498H33.4375C32.7474 41.2498 32.1876 40.69 32.1876 39.9999C32.1876 39.3098 32.7474 38.75 33.4375 38.75H38.7501V33.4374C38.7501 32.7473 39.3099 32.1875 40 32.1875C40.6901 32.1875 41.2499 32.7473 41.2499 33.4374V38.75H46.5625C47.2526 38.75 47.8124 39.3098 47.8124 39.9999C47.8124 40.69 47.2526 41.2498 46.5625 41.2498Z" fill="#FAFAFA"/>
</svg>

<svg xmlns="http://www.w3.org/2000/svg" width="80" height="80" fill="none"  xmlns:v="https://vecta.io/nano"><g fill="#2196f3"><circle cx="40" cy="40" r="40" fill-opacity=".1"/><path d="M40 25a15.02 15.02 0 0 0-15 15 15.02 15.02 0 0 0 15 15 15.02 15.02 0 0 0 15-15 15.02 15.02 0 0 0-15-15z"/></g><path d="M46.563 41.25H41.25v5.313a1.25 1.25 0 0 1-1.25 1.25 1.25 1.25 0 0 1-1.25-1.25V41.25h-5.313a1.25 1.25 0 0 1-1.25-1.25 1.25 1.25 0 0 1 1.25-1.25h5.313v-5.313a1.25 1.25 0 0 1 1.25-1.25 1.25 1.25 0 0 1 1.25 1.25v5.313h5.313a1.25 1.25 0 0 1 1.25 1.25 1.25 1.25 0 0 1-1.25 1.25z" fill="#fafafa"/></svg>
